X:1
T:Final Fantasy IX - Kuja's Theme
T:Final Fantasy IX - Kuja's Theme
T:Original title in Japanese: クジャのテーマ (Kuja no Tēma)
T:Nobuo Uematsu
C:Nobuo Uematsu
%%score { 1 | 2 }
L:1/8
Q:3/8=80
M:12/8
K:F
V:1 treble nm="Piano" snm="Pno."
V:2 bass 
V:1
|:!f! afA ^gf^G afA bfB | afA fdF dAD BFB, ||[K:Ab] !tenuto![A,DA]12 | !tenuto![DFd]12- | %4
 !tenuto![DFd]12 | cAC =BA=B, cAC dAD | cAC cAC fcF afA |[K:D]!f! b!>(!fB bfB bfB bfB | %8
 bfB bfB bfB bf!>)!!p!B |!f! a!>(!fA afA afA afA | afA afA afA af!>)!!p!A || %11
[K:E]!f! gcG ^^fc^^F gcG acA | gcG gcG c'gc e'ge ||[K:D]!f! g'!>(!bg g'bg g'bg g'bg | %14
 g'bg g'bg g'bg g'b!>)!!p!g |[K:D]!f! dFD cFC dFD eBE | dFD dFD fdF adA | %17
[K:C]!f! c'!>(!ec c'ec c'ec c'ec | c'ec c'ec c'ec c'e!>)!!p!c |[K:A]!f! a!>(!cA acA acA acA | %20
 acA acA acA ac!>)!!p!A :| %21
V:2
|:!ped! D,,A,,D, F,D,^G,,!ped-up!!ped! D,,A,,D, F,D,B,,!ped-up! | %1
!ped! D,,A,,D, F,D,A,,!ped-up!!ped! D,,A,,D, F,D,B,,!ped-up! || %2
[K:Ab]!ped! D,,A,,_F, _G,F,A,,!ped-up!!ped! D,,A,,F, G,F,A,,!ped-up! | %3
!ped! B,,,F,,D, E,D,F,,!ped-up!!ped! B,,,F,,D, E,D,F,,!ped-up! | %4
!ped! B,,,F,,D, E,D,F,,!ped-up!!ped! B,,,F,,D, E,D,F,,!ped-up! | %5
!ped! F,,C,F, A,F,=B,,!ped-up!!ped! F,,C,F, A,F,D,!ped-up! | %6
!ped! F,,C,F, A,F,C,!ped-up!!ped! F,,C,F, A,F,C,!ped-up! | %7
[K:D]!ped! B,,F,B, DB,F,!ped-up!!ped! B,,F,B, DB,F,!ped-up! | %8
!ped! B,,F,B, DB,F,!ped-up!!ped! B,,F,B, DB,F,!ped-up! | %9
!ped! F,,F,A, CA,F,!ped-up!!ped! F,,F,A, CA,F,!ped-up! | %10
!ped! F,,F,A, CA,F,!ped-up!!ped! F,,F,A, CA,F,!ped-up! || %11
[K:E]!ped! C,,G,,C, E,C,^^F,,!ped-up!!ped! C,,G,,C, E,C,A,,!ped-up! | %12
!ped! C,,G,,C, E,C,G,,!ped-up!!ped! C,,G,,C, E,C,G,,!ped-up! || %13
[K:D]!ped! E,,B,,E, F,E,B,,!ped-up!!ped! E,,B,,E, G,E,B,,!ped-up! | %14
!ped! E,,B,,E, F,E,B,,!ped-up!!ped! E,,B,,E, G,E,B,,!ped-up! | %15
[K:D]!ped! B,,,F,,B,, C,B,,F,,!ped-up!!ped! B,,,F,,B,, C,B,,F,,!ped-up! | %16
!ped! B,,,F,,B,, D,B,,F,,!ped-up!!ped! B,,,F,,B,, D,B,,F,,!ped-up! | %17
[K:C]!ped! A,,,A,,C, E,C,A,,!ped-up!!ped! A,,,A,,C, E,C,A,,!ped-up! | %18
!ped! A,,,A,,C, E,C,A,,!ped-up!!ped! A,,,A,,C, E,C,A,,!ped-up! | %19
[K:A]!ped! F,,C,F, A,F,C,!ped-up!!ped! F,,C,F, A,F,C,!ped-up! | %20
!ped! F,,C,F, A,F,C,!ped-up!!ped! F,,C,F, A,F,C,!ped-up! :| %21

